X: 1719
T: Sendeki Kaşlar
C: Nuri Halil Poyraz
O: Turkey
F: http://compmusic.upf.edu/node/140
N: muhayyerkurdi--turku--ciftesofyan--sendeki_kaslar--
N: makam= muhayyerkurdi
N: form= turku
N: usul= ciftesofyan = 9/8
M: 9/8
L: 1/16
K: C _B   
Q: 1/4=192
%%MIDI tuningsystem comma53
g2aa a2a2 a2z2 d'2d'a z2 | ab agfe d2c2 d2e2 f2a2  | 
w:  ARANAĞME  |   | 
gbag fed2 c2_3/4B2 c2B2 BA | _3/4B2 AAA2 A2A2 AAA2 A2A2  | 
w:   |   | 
g4 a2a2 a4 a6 | g2 b2a2 g2f2 e2d4f2  | e18 | \
w:  Sen de ki  kaş lar   |  ben *  de  de  o lay *  dı   |  vay    | 
g4a2 a2a4a6  | g2b2 a2g2 f2e2 d4 f2 | 
w:  Sen de ki  kaş lar   |  ben *  de  de  o lay *  dı   | 
e18  | g4 a2a2 a4 a6 | g2 ^f2g2 b2a2 g2=f2 e2d2  | \
w:  vay    |  Kaş la rı  sen den   |  ras *  tı ğı  ben *  den    | 
e2f2 g2a2 g2f2 e2d2 e2 | 
w:  E lâ  göz lü  kü çük  ha nım  da    | 
c2 d2d2 c2c2 _3/4B2B4A2  | A18 | g4a2 a2a4a6  | \
w:  Ay rı la mam  ben  *  sen  |  den    |  Kaş la rı  sen den   | 
g2^f2 g2b2 a2g2 =f2e2 d2 | 
w:  ras *  tı ğı  ben *  den    | 
e2 f2g2 a2g2 f2e2 d2e2  | c2d2 d2c2 c2_3/4B2 B4 A2 | A18  | \
w:  E lâ  göz lü  kü çük  ha nım  da    |  Ay rı la mam  ben  *  sen  |  den    | 
g2aa a2a2 a2z2 d'2d'a z2 | 
w:  ARANAĞME  | 
ab agfe d2c2 d2e2 f2a2  | gbag fed2 c2_3/4B2 c2B2 BA | 
w:   |   | 
_3/4B2 AAA2 A2A2 AAA2 A2A2  | g4 a2a2 a4 a6 | \
w:   |  Sen de ki  kaş lar   | 
g2 b2a2 g2f2 e2d4f2  | 
w:  ben *  de  de  o lay *  dı   | 
e18 | g4a2 a2a4a6  | g2b2 a2g2 f2e2 d4 f2 | e18  | \
w:  vay    |  Sen de ki  kaş lar   |  ben *  de  de  o lay *  dı   |  vay    | 
g4 a2a2 a4 a6 | g2 ^f2g2 b2a2 g2=f2 e2d2  | 
w:  Kaş la rı  sen den   |  ras *  tı ğı  ben *  den    | 
e2f2 g2a2 g2f2 e2d2 e2 | c2 d2d2 c2c2 _3/4B2B4A2  | A18 | \
w:  E lâ  göz lü  kü çük  ha nım  da    |  Ay rı la mam  ben  *  sen  |  den    | 
g4a2 a2a4a6  | 
w:  Kaş la rı  sen den   | 
g2^f2 g2b2 a2g2 =f2e2 d2 | e2 f2g2 a2g2 f2e2 d2e2  | \
w:  ras *  tı ğı  ben *  den    |  E lâ  göz lü  kü çük  ha nım  da    | 
c2d2 d2c2 c2_3/4B2 B4 A2 | 
w:  Ay rı la mam  ben  *  sen  | 
A18  | |


